!!!OTL: Frisch auf zum fröhlichen Jagen (3-52), S. 151
!!!id: P1024
**kern
*clefG2
*k[f#]
*G:
{8b
=1
4dd
8b
=2
8b
8a
8b
=3
8cc
4a}
=4
4r
=5
{8d
=6
4cc
8cc
=7
8b
8dd
8b
=8
8.a
16g
16f#
16e
=9
4d}
=10
{8b
=11
4g
8g
=12
8g
8f#
8g
=13
8a
8g}
=14
{8a
=15
8b
8dd
8b
=16
8a
8g
8a
=17
[4.g
=18
4g]}
==
*-
!!!minrhy: 16
!!!meters: 3/8 ]  ZZ[4
!!!cut: Frisch auf zum fröhlichen Jagen (3-52), S. 151
!!!reg: Lothringen
!!!trd: PINCK, Louis: Verklingende Weisen, Bd3, Metz 1933
!!!rhy1: X_  X__X_  X_X_X_  X_X__  0__
!!!rhy2: X_  X__X_  X_X_X_  X_.XXX  X__
!!!key: P1024  16  G 3/8 ]  ZZ[4
!!!mod: HEPTATONIK IONISCH]  AMBITUS[8
!!!kad: 2-511
!!!akz: 534_432-5_112_3211_
!!!fot: 'a__b__c__d__
!!!for: 'a__b__av_c__
!!!fok: 'Md_^__\__^d_
!! PHRAS[AUFTAKTIG]
!!!fkt: Jagdlied
!! LOTH VKL
!! PR[29] 2K[10] 2G[7] 3K[2] 3G[0] 4A[7] 4Ü[0] 5A[2] 6K[0] 6G[0]
!! 7K[0] 7G[0] 8A[0] MEHR[0] SI[28] ABS[58] SR[17] SP[10]
!! ST[16] 2k[16] 2g[22] 3k[2] 3g[0] 4d[3] 4ü[0] 5d[0] 6k[0] 6g[0]
!! 7k[0] 7g[0] 8d[0] mehr[0] si[43] dm[-15] sr[38] sp[5]
!! 1F[3] 2F[97] 3F[0] 4F[0] LF[0] 2P[0] 3P[0] 4P[0] TRI[0] DF[2] AB[65]
!! TF[0] U3K[0] U3[0] U4[0] U4Ü[0] U5[5] U6K[0] U6[7] U7K[0] U7[15]
!! N1[31] N2K[0] N2[14] N3K[0] N3[10] N4[5] N4Ü[0] N5[14] N6K[0] N6[0]
!!!n7k: 0] N7[0] O1[0] O2K[0] O2[0] O3K[0] O3[0] HÖ[0
